X:75
T:Heart of Me Kitty + (j)
B:NFID.099b
075heart
S:SD
Z:Robinson/Black
N:Source has Part 2 measure 3 as |def g3 gab|. Since a stray
9/8 measure doesn't seem to fit, I have removed the |def|.
L:1/8
M:6/8
R:jig
Q:320
K:Am
cAA eAA|BAA edc|BGG dGG|g2g dBG|
cAA eAA|BAA e2^f|g2g dBG|1 cAA A2B:|2 cAA A3:|
a3 a2b|agb age|g3 gab|c'ag age|
a3 abc'|c'2c' ba^f|g2g dBG|1 cAA A3:|2 cAA A2B||
= = =
P:version in Em
K:Em
GEE BEE|FEE BAG|FDD ADD|d2d AFD|
GEE BEE|FEE B2^c|d2d AFD|1 GEE E2|2 GEE E3:|
e3 e2f|edf edB|d3 def|ged edB|
e3 efg|g2g fe^c|d2d AFD|1 GEE E3:|2 GEE E2F||

%%%

